src/basic/300/u25A1-square.svg

<svg width="38" height="48" viewBox="0 0 38 48" fill="none" xmlns="http://www.w3.org/2000/svg">
<path fill-rule="evenodd" clip-rule="evenodd" d="M0.99669,6.00363h0.5h35.00501h0.5v0.5v34.00157v0.5h-0.5h-35.00501h-0.5v-0.5v-34.00157zM1.99669,7.00363v33.00157h34.00501v-33.00157z" fill="black"/>
</svg>

<svg width="38" height="48" viewBox="0 0 38 48" fill="none" xmlns="http://www.w3.org/2000/svg">
<path fill-rule="evenodd" clip-rule="evenodd" d="M0.996688 6.00363H1.49669H36.5017H37.0017V6.50363V40.5052V41.0052H36.5017H1.49669H0.996688V40.5052V6.50363V6.00363ZM1.99669 7.00363V40.0052H36.0017V7.00363H1.99669Z" fill="black"/>
</svg>
